www/assets/icons/keyboard_voice.svg

<svg xmlns="http://www.w3.org/2000/svg" width="24" height="24" viewBox="0 0 24 24" fill='currentColor'><path d="M12 14.5c1.66 0 2.99-1.34 2.99-3l.01-6c0-1.66-1.34-3-3-3s-3 1.34-3 3v6c0 1.66 1.34 3 3 3m5.3-3c0 3-2.54 5.1-5.3 5.1s-5.3-2.1-5.3-5.1H5c0 3.42 2.72 6.23 6 6.72v3.28h2v-3.28c3.28-.48 6-3.3 6-6.72z"/></svg>

<svg width="24" height="24" viewBox="0 0 24 24" xmlns="http://www.w3.org/2000/svg" fill='currentColor'><path d="M12 14.5C13.66 14.5 14.99 13.16 14.99 11.5L15 5.5C15 3.84 13.66 2.5 12 2.5C10.34 2.5 9 3.84 9 5.5V11.5C9 13.16 10.34 14.5 12 14.5ZM17.3 11.5C17.3 14.5 14.76 16.6 12 16.6C9.24 16.6 6.7 14.5 6.7 11.5H5C5 14.92 7.72 17.73 11 18.22V21.5H13V18.22C16.28 17.74 19 14.92 19 11.5H17.3Z"/></svg>
